!!!!SEGMENT: pl-kozmzk--mzk-m-26--008_stefani-jozef--msza-swieta-agnus-dei.krn
!!!cenid: 18xx:2952
!!!COM: Stefani, Józef
!!!COM-rismID: pe30024097
!!!CDT: 1800/04/16-1876/03/19
!!!CNT: Polish
!!!OPR: Msza Święta
!!!OTL: Agnus Dei
!!!OMV: 008
!!!PDT:
!!!AGN: Sacred; Mass
!!!SMS-siglum: PL-KOZmzk
!!!SMS-shelfmark: mzk/m/26
!!!SMS-shelfwork: 001-008 M
!!!SMS-variant:
!!!SMS-altvar:
!!!NIFC-rismSourceID: 1001024881
!!!NIFC-islandoraID: pl-kozmzk:12693
!!!URL-pdf-islandora: https://repozytorium.nifc.pl/islandora/object/pl-kozmzk%3A12693/datastream/PDF/view
!!!URL-scan: https://polish.musicsources.pl/pl/lokalizacje/galeria/rekopisy/460 @EN{Scan on Polish Music Sources Website} @PL{Skany w portalu Dziedzictwo Muzyki Polskiej w otwartym dostępie}
!!!ONB-nifc: UWAGA: Części mszy: 1. Kyrie, 2. Gloria, 3. Graduale, 4. Credo, 5. Offertorium,
!!!OMD: Andantino.
!!!AIN: 1 empty 2 organ 2 tenor
!!!key:
**kern	**kern	**kern	**text	**text	**text	**dynam	**kern	**text	**dynam	**kern	**dynam
*part5	*part4	*part3	*part3	*part3	*part3	*part3	*part2	*part2	*part2	*part1	*part1
*staff5	*staff4	*staff3	*staff3	*staff3	*staff3	*	*staff2	*staff2	*	*staff1	*
*Iorgan	*Iorgan	*Iempty	*	*	*	*	*Itenor	*	*	*Itenor	*
*I"[Organy]	*I"[Organy]	*I"[Bas]	*	*	*	*	*I"[Tenore 2]	*	*	*I"[Tenore 1]	*
*>[A,B,B1,B,B2]	*>[A,B,B1,B,B2]	*>[A,B,B1,B,B2]	*>[A,B,B1,B,B2]	*>[A,B,B1,B,B2]	*>[A,B,B1,B,B2]	*>[A,B,B1,B,B2]	*>[A,B,B1,B,B2]	*>[A,B,B1,B,B2]	*>[A,B,B1,B,B2]	*>[A,B,B1,B,B2]	*>[A,B,B1,B,B2]
*>A	*>A	*>A	*>A	*>A	*>A	*>A	*>A	*>A	*>A	*>A	*>A
*clefF4	*clefG2	*clefF4	*	*	*	*	*clefC4	*	*	*clefC4	*
*k[b-e-]	*k[b-e-]	*k[b-e-]	*	*	*	*	*k[b-e-]	*	*	*k[b-e-]	*
*B-:	*B-:	*B-:	*	*	*	*	*B-:	*	*	*B-:	*
*M4/4	*M4/4	*M4/4	*	*	*	*	*M4/4	*	*	*M4/4	*
*met(c)	*met(c)	*met(c)	*	*	*	*	*met(c)	*	*	*met(c)	*
!	!	!	!	!	!	!	!	!	!	!LO:TX:a:t=	!
2ryy	8f/L	2ryy	.	.	.	.	2ryy	.	.	2ryy	.
.	8g/	.	.	.	.	.	.	.	.	.	.
.	8a/	.	.	.	.	.	.	.	.	.	.
.	8b-/	.	.	.	.	.	.	.	.	.	.
8ryy	8cc/J	8ryy	.	.	.	.	8ryy	.	.	8ryy	.
=1!|:	=1!|:	=1!|:	=1!|:	=1!|:	=1!|:	=1!|:	=1!|:	=1!|:	=1!|:	=1!|:	=1!|:
*>B	*>B	*>B	*>B	*>B	*>B	*>B	*>B	*>B	*>B	*>B	*>B
*^	*^	*	*	*	*	*	*	*	*	*	*
*	*	*	*^	*	*	*	*	*	*	*	*	*	*
*	*2\right	*	*2\right	*	*	*	*	*	*	*2\right	*	*	*2\right	*
!	!	!	!	!	!	!	!	!	!	!	!	!LO:DY:rj	!	!LO:DY:a:rj
1F	2BB-\	2dd/	[>2b-\	2ryy	2BB-/	2. Pa-	3. Nie-	4. Bo-	.	2B-\	1. Dzie-	p	2d\	p
.	4D\	4.ff/	4b-\]	2f\	4D/	-nem	-chaj	-ży	.	4B-\	-ci	.	4f\	.
.	4C\	.	4a\	.	4C/	ty	w Chry-	ba-	.	4A\	nie-	.	8f\L	.
.	.	8ee-/	.	.	.	.	.	.	.	.	.	.	8e-\J	.
*v	*v	*	*	*	*	*	*	*	*	*	*	*	*	*
*	*	*v	*v	*	*	*	*	*	*	*	*	*	*
=2	=2	=2	=2	=2	=2	=2	=2	=2	=2	=2	=2	=2
2.F 2.BB-/	2.dd 2.b-/	2.f\	2BB-/	na-	-stu-	-ran	.	2B-\	-go-	.	2d\	.
.	.	.	4BB-/	-szym	-sa	ku	.	4B-\	-dne	.	4d\	.
4G 4GG/	4dd 4b-/	4ryy	4G\	i	i-	coś	.	4B-\	tak	.	4d\	.
=3	=3	=3	=3	=3	=3	=3	=3	=3	=3	=3	=3	=3
*	*	*	*2\right	*	*	*	*	*	*	*	*	*
1c 1G 1E-	4.cc/	1g	2E-\	Oj-	-dzie-	zma-	.	2G/	wiel-	.	(4.c\	.
.	16dd/LL	.	.	.	.	.	.	.	.	.	16d\LL	.
!	!	!	!	!	!	!	!	!	!	!	!	!LO:HP:a
.	16cc/JJ	.	.	.	.	.	.	.	.	.	16c\JJ)	<
.	4b-/	.	4E-\	-cem	-my	-zał	.	4G/	-kiej	.	4B-\	.
.	4cc/	.	4E-\	na	przy	grzech	.	4G/	o-	.	4c\	[[
!!LO:LB:g=original
=4	=4	=4	=4	=4	=4	=4	=4	=4	=4	=4	=4	=4
[2d [2A [2D\	[2dd/	4g\	2D\	wie-	kło-	swia-	.	(4G/	-fia-	.	2d\	.
.	.	8f#X\L	.	.	.	.	.	8F#X/L	.	.	.	.
.	.	8en\J	.	.	.	.	.	8En/J)	.	.	.	.
2d] 2A] 2D\]	2dd/]	2f#\	4D\	-ki	-dy	-ta	.	4F#/	-ry	.	4d\	.
.	.	.	4r	.	.	.	.	4r	.	.	4r	.
!	!	!	!	!	!	!	!	!	!	!	!	!LO:DY:a
.	.	.	.	.	.	.	.	.	.	.	.	f
=5	=5	=5	=5	=5	=5	=5	=5	=5	=5	=5	=5	=5
2c 2C\	2ee-/	4g\	2C/	Cho-	Czy-	A	.	(4G/	z Twe-	.	2e-^\	.
.	.	4a\	.	.	.	.	.	4A/)	.	.	.	.
2B- 2BB-\	2dd/	2b-\	2BB-/	-ciaż	-li	by	.	2B-\	-go	.	2d^\	.
*	*v	*v	*	*	*	*	*	*	*	*	*	*
=6	=6	=6	=6	=6	=6	=6	=6	=6	=6	=6	=6
2B- 2G 2E-\	2gg [2b- 2g\	2E-\	sła-	w szczę-	lud	.	2B-\	sto-	.	2g^\	.
2B- 2F 2D\	2ff 2b-] 2f\	2D\	-bi	-ście	twój	.	2B-\	-łu	.	2f^\	.
=7	=7	=7	=7	=7	=7	=7	=7	=7	=7	=7	=7
*^	*^	*	*	*	*	*	*	*	*	*	*
*	*^	*	*	*	*	*	*	*	*	*	*	*	*
!	!	!	!	!	!	!	!	!	!	!	!	!	!	!LO:DY:a:rj
2c/	4G/	2C\	4ff/	4g\	(2C/	po-	czy	żył	.	(4G/	da-	.	(4f\	p
.	4F/	.	4ee-/	4a\	.	.	.	.	.	4A/	.	.	4e-\	.
4.B- 4.F/	4BB-\	2rGGyy	4dd/	4.b-\	4BB-/)	.	.	.	.	4.B-\)	.	.	4d\)	.
.	8D\L	.	8ff/L	.	(8D/L	-błą-	w nie-	bez-	.	.	.	.	(8f\L	.
8c/	8GJ 8E-\	.	8ee-/J	8cc\	8E-/J)	.	.	.	.	8c\	-ry	.	8e-\J)	.
*	*v	*v	*	*	*	*	*	*	*	*	*	*	*	*
=8	=8	=8	=8	=8	=8	=8	=8	=8	=8	=8	=8	=8	=8
4.d 4.B-/	2.F\	4.dd 4.b-/	2ryy	2F\	-dzie-	-do-	-piecz-	.	(4.B-SSs\	bio-	.	(4.dSsS\	.
8e- 8c/	.	8ee- 8cc/	.	.	.	.	.	.	8c\)	.	.	8e-\)	.
4c 4A/	.	4cc/	4a\	4F\	-my	-li	-ny	.	4A\	-rą	.	4c\	.
4rc	4r	4f/	4ryy	4r	.	.	.	.	4r	.	.	4r	.
*v	*v	*	*	*	*	*	*	*	*	*	*	*	*
*	*v	*v	*	*	*	*	*	*	*	*	*	*
!!LO:LB:g=original
=9	=9	=9	=9	=9	=9	=9	=9	=9	=9	=9	=9
1B- 1F 1D	2ff 2f/	2D\	Prze-	On	U-	.	2B-\	Rę-	.	2f^\	.
.	2b- 2f/	4.D^\	-cie	nam	-twierdź	.	4.F^>/	-ce	.	4.B-^\	.
.	.	8D\	zpod	po-	w nas	.	8F/	do	.	8B-\	.
=10	=10	=10	=10	=10	=10	=10	=10	=10	=10	=10	=10
*^	*^	*	*	*	*	*	*	*	*	*	*
2c 2G 2E-\	2ryy	4.a/	2f\	2E-\	two-	-ka-	wia-	.	2F/	Oj-	.	(4.A\	.
.	.	16b-/LL	.	.	.	.	.	.	.	.	.	16B-\LL	.
.	.	16cc/JJ	.	.	.	.	.	.	.	.	.	16c\JJ)	.
4B- 4F/	4D\	4b-/	4f\	4D\	-jej	-zał	-rę	.	4F/	-ca	.	4B-\	.
8cL 8C\	4ryy	8ccL 8a/	4f\	(8C/L	nie-	i	i	.	4F/	po-	.	(8c\L	.
8B-J 8BB-\	.	8ddJ 8b-/	.	8BB-/J)	.	.	.	.	.	.	.	8d\J)	.
*v	*v	*	*	*	*	*	*	*	*	*	*	*	*
=11	=11	=11	=11	=11	=11	=11	=11	=11	=11	=11	=11	=11
2A 2AA\	4.ee- 4.cc/	2f\	2AA/	-wyj-	wzo-	mi-	.	2F/	-dno-	.	(4.e-\	.
.	8cc/	.	.	.	.	.	.	.	.	.	8c\)	.
2B- 2D\	4.dd/	2b- 2f\	4.BB-/	-dziem	-ry	-łość	.	4.F/	-szą	.	4.d\	.
.	8ff/	.	8D/	o-	i	dla	.	8F/	po	.	8f\	.
*	*v	*v	*	*	*	*	*	*	*	*	*	*
=12	=12	=12	=12	=12	=12	=12	=12	=12	=12	=12	=12
2.c 2.A 2.F\	2.cc 2.a 2.f/	2F\	-pie-	śla-	bra-	.	2A\	da-	.	2c\	.
.	.	4F\	-ki	-dy	-ta	.	4A\	-ry	.	4c\	.
8.F\L	8.f/L	4r	.	.	.	.	4r	.	.	4r	.
32G\LL	32g/LL	.	.	.	.	.	.	.	.	.	.
32A\JJJ	32a/JJJ	.	.	.	.	.	.	.	.	.	.
!!LO:PB:g=original
=13	=13	=13	=13	=13	=13	=13	=13	=13	=13	=13	=13
!	!	!	!	!	!	!	!	!	!	!	!LO:DY:a:rj
1B-	1b-	2B-\	Gdy	Jak	Daj	.	2B-\	I	.	2B-\	f
.	.	2B-\	cię	życ	nam	.	2B-\	z u-	.	2B-\	.
=14	=14	=14	=14	=14	=14	=14	=14	=14	=14	=14	=14
!!LO:TX:a:t=1. 2. 3 Strofa.
*>B1	*>B1	*>B1	*>B1	*>B1	*>B1	*>B1	*>B1	*>B1	*>B1	*>B1	*>B1
*	*^	*	*	*	*	*	*	*	*	*	*
[2B- [2G [>2E-\	2gg 2ee- 2b- 2g\	2ryy	2E-\	po-	we-	.	.	2B-\	-fno-	.	2g\	.
4B-] 4G] 4E-\]	4ee- 4b- 4g\	4ryy	4E-\	-śród	-dług	.	.	4G/	-scią	.	4e-\	.
!	!	!	!	!	!	!	!LO:DY:a:rj	!	!	!LO:DY:a:rj	!	!LO:DY:a:rj
4A 4E- 4C\	8.g/L	4e-\	8.C/	nas	Oj-	.	p	8.E-/	i	p	8.G/	p
.	16a/Jk	.	16C/	czu-	-ca	.	.	16E-/	z po-	.	16A/	.
*	*v	*v	*	*	*	*	*	*	*	*	*	*
=15	=15	=15	=15	=15	=15	=15	=15	=15	=15	=15	=15
*^	*	*	*	*	*	*	*	*	*	*	*
2B- 2G/	1D	2b- 2g/	(2..D\	-je-	wo-	.	.	(2G/	-ko-	.	(2B-\	.
.	.	8qb- 8qg/	.	.	.	.	.	8qG/	.	.	8qB-/	.
2c 2A/	.	4.a 4.f#X/	.	.	.	.	.	4.F#X/	.	.	4.A\	.
.	.	8g/	8G\)	.	.	.	.	8G/)	.	.	8G\)	.
*v	*v	*	*	*	*	*	*	*	*	*	*	*
=16	=16	=16	=16	=16	=16	=16	=16	=16	=16	=16	=16
4B- 4G\	4g/	4G\	-my.	-li	.	.	4G/	-rą	.	4G\	.
4G\	4g/	4r	.	.	.	.	4r	.	.	4r	.
4G-X\	4g-X/	2r	.	.	.	.	2r	.	.	2r	.
4F\	4f/	.	.	.	.	.	.	.	.	.	.
!!LO:LB:g=original
=17:|!	=17:|!	=17:|!	=17:|!	=17:|!	=17:|!	=17:|!	=17:|!	=17:|!	=17:|!	=17:|!	=17:|!
!!LO:TX:a:t=4. Strofa
*>B2	*>B2	*>B2	*>B2	*>B2	*>B2	*>B2	*>B2	*>B2	*>B2	*>B2	*>B2
[2B- [2G [>2E-\	2gg 2ee- 2b- 2g\	2E-\	.	.	.	.	2B-\	po-	.	2g\	.
4B-] 4G] 4E-\]	4ee- 4b- 4g\	4E-\	.	.	.	.	4G/	-kój	.	4e-\	.
8.D\L	8.dd\L	8.D/	.	.	.	.	8.d\	po-	.	8.d\	.
16C\Jk	16cc\Jk	16C/	.	.	.	.	16c\	-kój	.	16c\	.
=18	=18	=18	=18	=18	=18	=18	=18	=18	=18	=18	=18
4F\	4ff\	1F	.	.	.	.	1f	wiecz-	.	1f	.
4r	4r	.	.	.	.	.	.	.	.	.	.
4F 4FF/	4a 4f 4e- 4c/	.	.	.	.	.	.	.	.	.	.
4r	4r	.	.	.	.	.	.	.	.	.	.
=19	=19	=19	=19	=19	=19	=19	=19	=19	=19	=19	=19
[1B- [1BB-	4b- 4f 4d/	4BB-/	.	.	.	.	4B-\	-ny.	.	4B-\	.
.	(4dd 4b-\	4r	.	.	.	.	4r	.	.	4r	.
.	4ee- 4cc 4a\	2r	.	.	.	.	2r	.	.	2r	.
.	4ff 4dd 4a-X\	.	.	.	.	.	.	.	.	.	.
=20	=20	=20	=20	=20	=20	=20	=20	=20	=20	=20	=20
*	*^	*	*	*	*	*	*	*	*	*	*
1B-_ 1BB-_	4ff/	2g\	1r	.	.	.	.	1r	.	.	1r	.
.	4ee-/	.	.	.	.	.	.	.	.	.	.	.
.	4dd/	4f#X\	.	.	.	.	.	.	.	.	.	.
.	4ee-/	4g\	.	.	.	.	.	.	.	.	.	.
=21	=21	=21	=21	=21	=21	=21	=21	=21	=21	=21	=21	=21
1B-] 1BB-]	2dd 2b- 2fn\	2ryy	1r	.	.	.	.	1r	.	.	1r	.
.	8qdd/	.	.	.	.	.	.	.	.	.	.	.
.	4.cc 4.a/	4.e-\	.	.	.	.	.	.	.	.	.	.
.	8b-/)	8d\	.	.	.	.	.	.	.	.	.	.
*	*v	*v	*	*	*	*	*	*	*	*	*	*
!!LO:LB:g=original
=22	=22	=22	=22	=22	=22	=22	=22	=22	=22	=22	=22
2B- [2BB-\	4b- 4d/	1r	.	.	.	.	1r	.	.	1r	.
.	4d/	.	.	.	.	.	.	.	.	.	.
2BB-\]	4e- 4c 4A/	.	.	.	.	.	.	.	.	.	.
.	4f 4d 4B- 4A-X</	.	.	.	.	.	.	.	.	.	.
=23	=23	=23	=23	=23	=23	=23	=23	=23	=23	=23	=23
*^	*^	*	*	*	*	*	*	*	*	*	*
2G/	1BB-	4f/	1B-	1r	.	.	.	.	1r	.	.	1r	.
.	.	4e-/	.	.	.	.	.	.	.	.	.	.	.
4F#X\	.	4d/	.	.	.	.	.	.	.	.	.	.	.
4G\	.	4e-/	.	.	.	.	.	.	.	.	.	.	.
*	*	*v	*v	*	*	*	*	*	*	*	*	*	*
=24	=24	=24	=24	=24	=24	=24	=24	=24	=24	=24	=24	=24
*	*^	*	*	*	*	*	*	*	*	*	*	*
[2Fn\	1BB-	2ryy	2d 2B-/	1r	.	.	.	.	1r	.	.	1r	.
.	.	.	8qd/	.	.	.	.	.	.	.	.	.	.
2c 2F] 2E-/	.	4.E-\	4.c/	.	.	.	.	.	.	.	.	.	.
.	.	8D\	8B-/	.	.	.	.	.	.	.	.	.	.
*	*v	*v	*	*	*	*	*	*	*	*	*	*	*
=25	=25	=25	=25	=25	=25	=25	=25	=25	=25	=25	=25	=25
2F 2D [<2BB-\	2ryy	2B-/	1r	.	.	.	.	1r	.	.	1r	.
4G-X/	2BB-\_	4e-/	.	.	.	.	.	.	.	.	.	.
4E-/	.	4g-X/	.	.	.	.	.	.	.	.	.	.
=26	=26	=26	=26	=26	=26	=26	=26	=26	=26	=26	=26	=26
2F/	1BB-]	2b- 2d/	1r	.	.	.	.	1r	.	.	1r	.
4G-X/	.	4e-/	.	.	.	.	.	.	.	.	.	.
4E-/	.	4g-X/	.	.	.	.	.	.	.	.	.	.
*v	*v	*	*	*	*	*	*	*	*	*	*	*
=27	=27	=27	=27	=27	=27	=27	=27	=27	=27	=27	=27
1B- 1F 1D;<	1f 1d;	1r;	.	.	.	.	1r;	.	.	1r;	.
==	==	==	==	==	==	==	==	==	==	==	==
*-	*-	*-	*-	*-	*-	*-	*-	*-	*-	*-	*-
!!!system-decoration: s1,s2,s3{(s4,s5)}
!!!RDF**kern: > = above
!!!RDF**kern: < = below
!!!ENC: Marcin Jachim
!!!END: 2021-08-12
!!!ENC: Marta Lawrence
!!!END: 2021-09-09
